X:5296
T:Pullet
O:england
M:4/4
L:1/8
C:Trad
R:Hornpipe
K:D
fe |: d2B2B2dB | AFAB ABde | f2B2B2 dB | AGde fefa | b2B2B2 dB | A2 AB A
Bde | f2B2B2 dB | ABde f2 fe :|
|: defg abaf | defg a2 af | defg abaf | edef g2 fe | defg abaf | defg a2
gf | gfga bagf | edef g2 fe :|


